symbols/web/mic/materialsymbolssharp/mic_wght600grad200_40px.svg

<svg xmlns="http://www.w3.org/2000/svg" height="40" width="40"><path d="M20 23.875q-2.333 0-3.917-1.667-1.583-1.666-1.583-4V8q0-2.25 1.604-3.854T20 2.542q2.292 0 3.896 1.604T25.5 8v10.208q0 2.334-1.583 4-1.584 1.667-3.917 1.667Zm0-10.667Zm-1.875 23.459v-5.542q-4.917-.583-8.146-4.25-3.229-3.667-3.229-8.667h3.75q0 3.917 2.792 6.646 2.791 2.729 6.708 2.729 3.917 0 6.708-2.729 2.792-2.729 2.792-6.646h3.75q0 5-3.25 8.667t-8.167 4.25v5.542ZM20 19.833q.625 0 1.042-.479.416-.479.416-1.146V8q0-.583-.416-1.021-.417-.437-1.042-.437t-1.042.437q-.416.438-.416 1.021v10.208q0 .667.416 1.146.417.479 1.042.479Z"/></svg>

<svg xmlns="http://www.w3.org/2000/svg" height="40" width="40"><path d="M20 23.875Q17.667 23.875 16.083 22.208Q14.5 20.542 14.5 18.208V8Q14.5 5.75 16.104 4.146Q17.708 2.542 20 2.542Q22.292 2.542 23.896 4.146Q25.5 5.75 25.5 8V18.208Q25.5 20.542 23.917 22.208Q22.333 23.875 20 23.875ZM20 13.208Q20 13.208 20 13.208Q20 13.208 20 13.208Q20 13.208 20 13.208Q20 13.208 20 13.208Q20 13.208 20 13.208Q20 13.208 20 13.208Q20 13.208 20 13.208Q20 13.208 20 13.208ZM18.125 36.667V31.125Q13.208 30.583 9.979 26.896Q6.75 23.208 6.75 18.208H10.5Q10.5 22.125 13.271 24.854Q16.042 27.583 20 27.583Q23.958 27.583 26.729 24.854Q29.5 22.125 29.5 18.208H33.25Q33.25 23.208 30 26.896Q26.75 30.583 21.833 31.125V36.667ZM20 19.833Q20.625 19.833 21.042 19.354Q21.458 18.875 21.458 18.208V8Q21.458 7.417 21.042 6.979Q20.625 6.542 20 6.542Q19.375 6.542 18.958 6.979Q18.542 7.417 18.542 8V18.208Q18.542 18.875 18.958 19.354Q19.375 19.833 20 19.833Z"/></svg>
